X: 110
T:Farmer's Jamboree Jig
R:Jig
S:from Derek 
M:6/8
L:1/8
Q:3/8=120
K:A
(cd)||:efe dcB|A2c E2A|cBc edc|B3 (Bcd)|
efe dcB|A2c E2e|gfe dcB|A3  (Acd):|
|:ece (a2g)|fdf (b2a)|gfe def|e3 (ecd)|
ece (a2g)|fdf (b2a)|gfe dcB|[1A3 (Acd):|[2(A3A)|]
